X:1
T:I've been roaming
T:"I've been roaming"
T:a favorite cavatina, arranged with variations
T:Olivia Dussek Bulkley
T:Arranged for the Harp (or Piano)
C:Olivia Dussek Bulkley
Z:Arranged for the Harp (or Piano)
%%score { 1 | 2 }
L:1/8
Q:1/4=90
M:4/4
K:Eb
V:1 treble nm="Piano" snm="Pno."
V:2 bass 
V:1
 [Ge][Fd] | [EGe][EGB][CA][B,G]{G} [A,F][G,E] [Ge][Fd] | [Ge]B[FA][EG] [DFB]A [FA][EG] | %3
 [Ec]B [EGe]d [EAd]c [EGc]B | [DB]A [EA]G [EG][DF] [Ge][Fd] | %5
 [Ge]B [CA][B,G]{G} [A,F][G,E] [Ge][Fd] | [Ge]B [FA][EG] [DFB]A [FA][EG] | %7
 [Ec][EB]"_Slen" [FAd][GBe][Q:1/4=60] !fermata![FBdf]2{dB} A[Q:1/4=90][EG] | %8
 [CG]F[G,E][F,D] [G,E]2 [EG][DF] | [DF]B[FB]=A [EA]G[Ec]B | [CF=A]>c [Af]>e [FBe]d{d} cB | %11
 =AB [Fd][DB] [EG]cde | [Fd]B [Ec]=A [DB]2 [Ge][Fd] | [EGe]B [CA][B,G]{G} [A,F][G,E] [Ge][Fd] | %14
 [Ge]B [B,FA][EG] [B,FB]A [FA]G | %15
 [Ec][EB][FAd][GBe][Q:1/4=30] !fermata![FBdf]2{!fermata!e!fermata!d!fermata!c!fermata!B!fermata!=A} !fermata!_A[Q:1/4=90] [EG] | %16
 [CG]F[G,E][F,D] [G,E]2"_VAR. I" e/G/d/F/ | e/E/G/B/ A/C/G/B,/ F/A,/E/G,/ e/G/d/F/ | %18
 e/E/G/B/ A/F/G/E/ B/D/F/B/ A/E/G/E/ | c/E/B/E/ e/E/G/d/ d/E/A/c/ c/E/G/B/ | %20
 B/D/F/B/ A/B,/E/G/ G/B,/E/G/ F/B,/D/F/ | e/E/G/B/ A/C/G/B,/ F/A,/E/G,/ e/G/d/F/ | %22
 e/E/G/B/ A/F/G/E/ B/D/F/B/ A/E/G/E/ | %23
 c/E/B/E/ d/F/e/G/[Q:1/4=50] !fermata![FBdf]2[Q:1/4=7]{!fermata!A!fermata!d!fermata!B!fermata!f!fermata!d!fermata!b!fermata!f!fermata!d'!fermata!b!fermata!f'} !fermata!A/[Q:1/4=90]F/G/E/ | %24
 G/G,/C/F/ E/B,/D/A,/ [G,E]2 F/D/G/E/ | F/B,/D/F/ d/c/B/=A/ G/C/E/G/ e/d/c/B/ | %26
 =A/F/A/c/ f/e/d/c/ d/f/B/d/ F/B/G/B/ | F/D/F/B/ d/c/B/A/ G/C/E/G/ f/e/d/c/ | %28
 d/f/B/d/ c/e/=A/c/"^dim." B/d/G/B/ _A/c/F/A/ | e/E/G/B/ A/C/G/B,/ F/A,/E/G,/ e/G/d/F/ | %30
 e/E/G/B/ A/F/G/E/ B/D/F/B/ A/E/G/E/ | %31
 c/E/B/E/ d/F/e/G/[Q:1/4=50] !fermata![FBdf]2[Q:1/4=10]{!fermata!F!fermata!B!fermata!d!fermata!f!fermata!B!fermata!d!fermata!f!fermata!b} !fermata!A/[Q:1/4=90]F/G/E/ | %32
 G/G,/C/F/ E/B,/D/A,/ [G,E]2"_VAR. II" (3e/E/G/ (3d/D/F/ | %33
 (3e/E/G/ (3B/G/E/ (3z/ A/E/ (3z/ G/E/ (3z/ F/C/ (3z/ E/B,/ (3z/ D/A,/ (3z/ E/B,/ | %34
 (3e/E/G/ (3B/G/E/ (3z/ A/E/ (3z/ G/E/ (3z/ B/D/ (3z/ A/F/ (3z/ A/F/ (3z/ G/E/ | %35
 (3z/ c/E/ (3z/ B/E/ (3z/ e/E/ (3z/ d/E/ (3z/ d/E/ (3z/ c/E/ (3z/ c/E/ (3z/ B/E/ | %36
 (3z/ B/D/ (3z/ A/D/ (3z/ A/F/ (3z/ G/E/ (3z/ G/E/ (3z/ F/D/ (3z/ e/G/ (3z/ d/F/ | %37
 (3z/ e/G/ (3z/ B/E/ (3z/ A/C/ (3z/ G/B,/ (3z/ F/A,/ (3z/ E/G,/ (3z/ e/G/ (3z/ d/F/ | %38
 (3z/ e/G/ (3z/ B/G/ (3z/ A/F/ (3z/ G/E/ (3z/ B/D/ (3z/ A/F/ (3z/ A/F/ (3z/ G/E/ | %39
 (3z/ c/E/ (3z/ B/E/ (3z/ d/F/ (3z/ e/G/[Q:1/4=50] !fermata![FBdf]2 (3d/B/[Q:1/4=20]!fermata!A/[Q:1/4=90] (3z/ G/E/ | %40
 (3z/ G/C/ (3z/ F/C/ (3z/ E/B,/ (3z/ D/A,/ [G,E]2 (3z/ D/F/ (3z/ E/G/ | %41
 (3z/ D/F/ (3B/F/D/ (3d/F/B/ (3d/c/B/ (3=A/C/E/ (3G/E/C/ (3c/G/E/ (3e/G/E/ | %42
 (3d/F/D/ (3B/F/D/ (3c/F/E/ (3=A/F/E/"^dim." (3B/f/e/ (3d/c/B/ (3A/G/F/ (3E/D/C/ | %43
 (3z/ D/F/ (3B/F/D/ (3d/F/D/ (3B/F/D/ (3A/C/E/ (3G/C/E/ (3c/G/E/ (3e/G/E/ | %44
 (3d/F/D/ (3B/F/D/ (3c/F/E/ (3=A/F/E/ (3B/d/c/ (3B/d/c/ (3B/d/B/ (3B/c/d/ | %45
 (3e/E/G/ (3B/G/E/ (3z/ A/E/ (3z/ G/E/ (3z/ F/C/ (3z/ E/B,/ (3z/ D/B,/ (3z/ E/B,/ | %46
 (3z/ E/G/ (3B/G/E/ (3z/ A/E/ (3z/ G/E/ (3z/ B/D/ (3z/ A/F/ (3z/ A/F/ (3z/ G/E/ | %47
 (3z/ c/E/ (3z/"_Slen" B/E/ (3z/ d/A/ (3z/ e/G/[Q:1/4=30] !fermata![FBdf]2[Q:1/4=90] (3z/ A/F/ (3z/ G/E/ | %48
 (3z/ G/C/ (3z/ F/C/ (3z/ E/B,/ (3z/ D/A,/ [G,E]2"_VAR. III" e/4E/4G/4B/4 d/4D/4F/4A/4 | %49
 e/4E/4G/4B/4 e/4d/4c/4B/4 A/4c/4B/4A/4 G/4B/4A/4G/4 F/4A/4G/4F/4 E/4G/4F/4E/4 D/4F/4E/4D/4 E/4G/4F/4E/4 | %50
 e/4E/4G/4B/4 e/4d/4c/4B/4 A/4c/4B/4A/4 G/4B/4A/4G/4 B/4D/4F/4A/4 A/4D/4F/4A/4 z/4 D/4F/4A/4 G/4B,/4E/4G/4 | %51
 c/4C/4E/4A/4 B/4G/4E/4B,/4 e/4E/4G/4B/4 d/4B/4G/4E/4 d/4C/4E/4A/4 c/4A/4E/4C/4 c/4B,/4E/4G/4 B/4G/4E/4B,/4 | %52
 B/4B,/4D/4F/4 A/4F/4D/4B,/4 A/4G,/4B,/4E/4 G/4E/4B,/4G,/4 G/4E/4B,/4G,/4 F/4D/4B,/4F,/4 e/4B/4G/4E/4 d/4A/4F/4D/4 | %53
 e/4E/4G/4B/4 e/4d/4c/4B/4 A/4c/4B/4A/4 G/4B/4A/4G/4 F/4A/4G/4F/4 E/4G/4F/4E/4 D/4F/4E/4D/4 E/4G/4F/4E/4 | %54
 e/4E/4G/4B/4 e/4d/4c/4B/4 A/4c/4B/4A/4 G/4B/4A/4G/4 B/4D/4F/4A/4 A/4D/4F/4A/4 z/4 D/4F/4A/4 G/4B,/4E/4G/4 | %55
 c/4C/4E/4A/4 B/4B,/4E/4G/4 d/4D/4F/4A/4 e/4E/4G/4B/4[Q:1/4=50] !fermata![FBdf]2[Q:1/4=30]{!fermata!B,!fermata!D!fermata!F!fermata!B!fermata!d!fermata!f!fermata!b!fermata!d'!fermata!f'!fermata!a'} !fermata![FA][Q:1/4=90][EG] | %56
 G/4C/4E/4G/4 F/4C/4A/4F/4 E/4B/4G/4E/4 D/4A/4F/4D/4 F/4E/4D/4E/4 G/4E/4B,/4G,/4 z [EG] | %57
 [CEG]>c [CEGc]>B [CFB]>A [FAd]>c | [G=B]d[Bdg]>f [Gcf]e{e}dc | [G=B]cde [FAd][Aa][Ff][Dd] | %60
 [CEGc]2 [EGe]>[DFd] [CEGc]2 e/4G/4B/4e/4d/4F/4A/4d/4 | %61
 e/4E/4G/4B/4 e/4d/4c/4B/4 A/4c/4B/4A/4 G/4B/4A/4G/4 F/4A/4G/4F/4 E/4G/4F/4E/4 D/4F/4E/4D/4 E/4G/4F/4E/4 | %62
 e/4E/4G/4B/4 e/4d/4c/4B/4 A/4c/4B/4A/4 G/4B/4A/4G/4 B/4D/4F/4A/4 A/4D/4F/4A/4 z/4 D/4F/4A/4 G/4B,/4E/4G/4 | %63
 c/4C/4E/4A/4 B/4B,/4E/4G/4 d/4D/4F/4A/4 e/4E/4G/4B/4[Q:1/4=40] !fermata![FBdf]2[Q:1/4=15]{!fermata!e!fermata!d!fermata!c!fermata!B!fermata!=A!fermata!_A} !fermata![FA][Q:1/4=90][EG] | %64
 G/4C/4E/4G/4 F/4C/4A/4F/4 E/4B/4G/4E/4 D/4A/4F/4D/4 F/4E/4D/4E/4 G/4E/4B,/4G,/4 z"_CODA" [Ge]/[Fd]/ | %65
 [Ge]EGB [EB]A[EA]c | [EB]c_de [Ad]c[cf]e | [Ae]dcB [Ge]B[Fc]A | [EG]<B [DA]<F E2 [EG][FA] | %69
 [=EGB]_dcB [FB]A[FA]B | [^F=Ac]edc [Ac]=B[GB]c | [Ad]fed [Ge]B[Fc]A | %72
 [EG]<B [DA]>F [Gg]e [=Ad]e/c/ | [EB]G[DA]F [G,E]3 (3G,/B,/E/ | %74
 G/B,/E/G/ B/E/G/B/ [Ge]2 z/ G/B/e/ | g/B/e/g/ b/g/e/b/ e'2 [FABd]2 | %76
 [GBe]2 [A,B,D]2 [G,B,E]2 [A,B,D]2 | [G,B,E]4 [gbe'g']4 | [G,B,E]4 z4 |] %79
V:2
 z2 | [E,,E,]4 [E,,E,]4 | [E,,E,]4 [D,,D,]3 [E,B,] | [A,C][G,B,] [E,B,]2 [A,,E,A,]2 [G,,E,G,]2 | %4
 [F,,F,]2 [E,,E,]2 [B,,,B,,]4 | [E,,E,]4 [E,,E,]4 | [E,,E,]4 [D,B,]3 [E,B,] | %7
 [A,C][G,B,][F,B,][E,B,] !fermata![D,B,]3 E, | [A,,A,]2 [B,,G,][B,,F,] [E,,B,,E,]2 z2 | %9
 [B,,B,]2 [D,B,]2 [E,B,]2 [C,C]2 | [F,C]2 [=A,C]2 [B,D]2 z2 | z2 [D,B,]2 [E,G,C]2 [C,E,]2 | %12
 F,2 F,,2 [B,,B,][A,,A,][G,,G,][F,,F,] | [E,,E,]4 [E,,E,]4 | [E,,E,]4 [D,,D,]3 [E,,E,] | %15
 [A,,A,][G,,G,][F,,F,][E,,E,] [B,,,B,,D,]3 [E,,E,] | [A,,A,]2 B,,B,,, [E,,E,]2 z2 | %17
 [E,,E,]4 [E,,E,]4 | [E,,E,]4 [B,,B,]2 [C,C][B,,B,] | [A,,A,][G,,G,] [E,,E,]2 [A,,A,]2 [G,,G,]2 | %20
 [F,,F,]2 [E,,E,]2 [B,,,B,,]4 | [E,,E,]4 [E,,E,]4 | [E,,E,]4 [B,,B,]2 [C,A,C][B,,G,B,] | %23
 [A,,A,][G,,G,][F,,F,][E,,E,] [D,,D,]3 [E,,E,] | [A,,,A,,]2 B,,B,,, [E,,E,]2 z2 | %25
 [B,,,D,,F,,B,,]4 [C,,G,,C,E,]4 | [F,,=A,,C,F,]4 [B,,D,F,B,]3 [E,B,] | %27
 [B,,D,F,B,]4 [E,B,]3 [E,B,] | F,2 F,,2 B,,2 B,,,2 | [E,,E,]4 [E,,E,]4 | %30
 [E,,E,]4 [B,,,B,,]2 [C,C][B,,B,] | [A,,A,][G,,G,][F,,F,][E,,E,] [D,,D,]3 E, | %32
 [A,,A,]2 [B,,G,][B,,F,] E,,2 z2 | E,2 CB, A,G,F,G, | E,2 D,E, [B,,B,]B,B,B, | A,G,E,G, A,CG,B, | %36
 F,B,E,B, [B,,B,]B,B,B, | E,E,E,E, E,E,E,E, | E,E,D,E, B,,B,B,B, | A,G,F,E, [D,,D,]3 A, | %40
 A,,A,[B,,G,][B,,F,] E,2 B,B, | B,2 B,,2 E,2 E,2 | F,2 F,2 B,,2 z2 | D,2 B,,2 E,2 C,2 | %44
 F,2 F,,2 B,,A,G,F, | E,2 CB, A,G,F,G, | E,2 D,E, B,,B,B,E, | A,G,F,E, [D,B,]2 B,E, | %48
 A,,A,G,F, E,2 z2 | [E,,E,]2 [CE][B,D] [A,C][G,B,] [F,A,][E,G,] | %50
 [E,,E,]2 [D,B,][E,B,] [B,,B,]2 [B,,B,][E,B,] | [A,,A,][G,,G,] [E,,E,]2 [A,,A,]2 [G,,G,]2 | %52
 [F,,F,]2 [E,,E,]2 [B,,,B,,]4 | [E,,E,]2 [CE][B,D] [A,C][G,B,] [F,A,][E,G,] | %54
 [E,,E,]2 [D,B,][E,B,] [B,,B,]2 B,[E,B,] | %55
 [C,E,A,][B,,E,G,][F,,A,,B,,F,][E,,G,,B,,E,] !fermata![D,,B,,D,]3 [E,,E,] | %56
 [A,,E,A,]2 [B,,G,][B,,F,] [E,G,]2 [E,,E,]2 | %57
 [C,,E,,G,,C,]2 [C,E,G,C]2 [F,,A,,C,F,]2 [A,,C,F,A,]2 | [G,,=B,,D,G,]2 [G,=B,D]2 [C,E,G,C]2 z2 | %59
 [E,,C,E,]4 [F,,A,,D,F,]4 | [G,,G,]2 [G,,G,]2 [C,G,]2 z2 | %61
 [E,,E,]2 [CE][B,D] [A,C][G,B,] [F,A,][E,G,] | [E,,E,]2 [D,B,][E,B,] [B,,B,]2 B,[E,B,] | %63
 [A,,A,][A,,G,][F,,F,][E,,E,] [D,,B,,D,]3 [E,,E,] | %64
 [A,,C,F,]2 [B,,E,G,][B,,F,A,] [E,G,]2 [E,,E,]2 | _D,B,[E,G,]B, C,C[E,A,]C | %66
 G,,B,[E,G,]B, A,,A,F,A, | B,,A,[D,F,]A, [C,E,]G,[A,,C,]F, | [B,,E,]G,[B,,F,]A, [E,G,]B, z2 | %69
 [C,=E,]B,G,B, F,CA,C | [D,^F,]C=A,C G,D=B,D | [F,A,]DB,D [E,G,]B,[C,F,]A, | %72
 [B,,E,]G,F,A, [C,E,]G,[=A,,E,]_G, | [B,,E,]G,F,A, [E,G,]2 E,2 | B,,2 G,,2 E,,2 E,2 | %75
 B,,2 G,,2 E,,2 B,,2 | E,2 B,,2 E,2 B,,2 | [E,,E,]4 [E,,E,]4 | [E,,G,,B,,E,]4 z4 |] %79

